icons/linear-ele-symbol-refresh-double.svg

<svg xmlns="http://www.w3.org/2000/svg" width="32px" height="32px" viewBox="0 0 32 32" version="1.1">
    <title>linear-ele-symbol-refresh-double</title>
    <g id="linear-ele-symbol-refresh-double" stroke-width="1" fill-rule="evenodd">
        <path d="M5,15 C5.55228475,15 6,15.4477153 6,16 C6,21.5228475 10.4771525,26 16,26 C18.4798388,26 20.8111883,25.093172 22.6139866,23.5010397 L20.5,23.5 C19.9871642,23.5 19.5644928,23.1139598 19.5067277,22.6166211 L19.5,22.5 C19.5,21.9477153 19.9477153,21.5 20.5,21.5 L25,21.5 C25.5522847,21.5 26,21.9477153 26,22.5 L26,27 C26,27.5522847 25.5522847,28 25,28 C24.4477153,28 24,27.5522847 24,27 L24.0010851,24.9439242 C21.8295096,26.8890266 19.0038889,28 16,28 C9.372583,28 4,22.627417 4,16 C4,15.4477153 4.44771525,15 5,15 Z M16,4 C22.627417,4 28,9.372583 28,16 C28,16.5522847 27.5522847,17 27,17 C26.4477153,17 26,16.5522847 26,16 C26,10.4771525 21.5228475,6 16,6 C13.5193558,6 11.1878315,6.90761573 9.38594378,8.49894547 L11.5,8.5 C12.0128358,8.5 12.4355072,8.88604019 12.4932723,9.38337887 L12.5,9.5 C12.5,10.0522847 12.0522847,10.5 11.5,10.5 L7,10.5 C6.44771525,10.5 6,10.0522847 6,9.5 L6,5 C6,4.44771525 6.44771525,4 7,4 C7.55228475,4 8,4.44771525 8,5 L7.9993896,7.0555741 C10.1698052,5.1117354 12.9953071,4 16,4 Z" id="&#24418;&#29366;" fill-rule="nonzero" />
    </g>
</svg>

<svg xmlns="http://www.w3.org/2000/svg" viewBox="0 0 32 32"><path fill="currentColor" d="M5 15a1 1 0 0 1 1 1c0 5.523 4.477 10 10 10 2.48 0 4.811-.907 6.614-2.499L20.5 23.5a1 1 0 0 1-.993-.883L19.5 22.5a1 1 0 0 1 1-1H25a1 1 0 0 1 1 1V27a1 1 0 0 1-2 0l.001-2.056A11.962 11.962 0 0 1 16 28C9.373 28 4 22.627 4 16a1 1 0 0 1 1-1M16 4c6.627 0 12 5.373 12 12a1 1 0 0 1-2 0c0-5.523-4.477-10-10-10-2.48 0-4.812.908-6.614 2.499L11.5 8.5a1 1 0 0 1 .993.883l.007.117a1 1 0 0 1-1 1H7a1 1 0 0 1-1-1V5a1 1 0 1 1 2 0v2.056A11.963 11.963 0 0 1 16 4"/></svg>
